
d1 $ slow 1 $ n "{9 1 5? [3 . 6 1?] 5 _ 3}%<7 6>"
  # s "808cy? 808cy 808cy _"
  # speed (fast 2 $ range "0.2 0.1 0.3?" "0.6 1 0.4" saw)
  # gain (slow 2 $ range 0.6 0.7 sine)
  # djf (slow 3 $ range 0.3 0.7 sine)
  # scram 0.2
